X:1
T: Gordon's Fiddletunes Jig
C:Gordy Euler
R:Jig
Q:180
K:Am
M:6/8
L:1/16
|:e2A2A2 d2B2G2|c2F2F2 B2c2d2|e2A2A2 d2B2G2|A2B2c2 d4g2|
e2A2A2 d2B2G2|c2F2F2 B2c2d2|c2a2a2 g2e2B2|1A2G2B2 A6:|2A2G2B2 A4E2|
|:E2A2A2 e2a2a2|g2e2c2 B2^G2E2|E2A2A2 e2a2a2|g2e2c2 B4^G2|
E2A2A2 e2a2a2|g2e2c2 B2c2d2|c2a2a2 g2e2B2|1A2G2B2 A4E2:|2A2G2B2 A6||
